X:013
T:The Shakin's o' the Pocky
C:James Scott Skinner and Peter Milne
B:adapted from The Caledonian Companion
N:as played by Aly Bain
Z:Nigel Gatherer
M:4/4
L:1/8
K:Bb 
B,>DF>G F<D B,>A|B>A G/A/B/c/ d4|e>cd>B c>A BG|F<D B>D C2 C>D|
B,>DF>G F<D B,>A|B>A G/A/B/c/ d4|e>cd>B c>AB>G|G/F/E/D/ F/E/D/C/ B,2 B|]
a|b>f da|b>f e/d/c/B/ f3 g/a/|b>f dB|A>B c<f B2 B>a|
b>f da|b>f e/d/c/B/ f2 f>e|d>Be>c d/c/B/A/ B>G|\
G/F/E/D/ F/E/D/C/ B,2 B|]
